storage/app/icons/phosphoricons/duotone/list-plus-duotone.svg

<svg xmlns="http://www.w3.org/2000/svg" fill="currentColor" viewBox="0 0 256 256"><path d="M216 64v128H40V64Z" opacity=".2"/><path d="M32 64a8 8 0 0 1 8-8h176a8 8 0 0 1 0 16H40a8 8 0 0 1-8-8m8 72h176a8 8 0 0 0 0-16H40a8 8 0 0 0 0 16m104 48H40a8 8 0 0 0 0 16h104a8 8 0 0 0 0-16m88 0h-16v-16a8 8 0 0 0-16 0v16h-16a8 8 0 0 0 0 16h16v16a8 8 0 0 0 16 0v-16h16a8 8 0 0 0 0-16"/></svg>

<svg xmlns="http://www.w3.org/2000/svg" viewBox="0 0 256 256" fill="currentColor"><path d="M216,64V192H40V64Z" opacity="0.2"/><path d="M32,64a8,8,0,0,1,8-8H216a8,8,0,0,1,0,16H40A8,8,0,0,1,32,64Zm8,72H216a8,8,0,0,0,0-16H40a8,8,0,0,0,0,16Zm104,48H40a8,8,0,0,0,0,16H144a8,8,0,0,0,0-16Zm88,0H216V168a8,8,0,0,0-16,0v16H184a8,8,0,0,0,0,16h16v16a8,8,0,0,0,16,0V200h16a8,8,0,0,0,0-16Z"/></svg>
